X: 32231
T: Phyllis' Birthday
R: reel
M: 4/4
K: Gmajor
BG ~G2 Bded|B2 Ac BAGE|DEGA B2 Bd|edBG A2 ed|
BG ~G2 Bded|B2 Ac BAGE|DEGA BABd|1 deBA G2 ed:|2 deBA G2 z2||
dega b2 ag|egdc BG ~G2|dega b2 ag|eaag a2 ge|
dega ~b2 ag|egdc BG GF|DEGA BABd|deBA G2 zG:|

